moscow-sport/img/logo.svg

<svg width="1066" height="318" viewBox="0 0 1066 318" fill="none" xmlns="http://www.w3.org/2000/svg">
<path d="M584.681 163.17H564.474V31.7676H584.681V83.751H587.568C599.115 83.751 602.001 72.1992 602.001 63.5353V31.7676H623.652V62.0913C623.652 76.5311 617.879 86.639 607.775 93.8589C619.322 101.079 623.652 109.743 623.652 124.183V164.614H603.445V122.739C603.445 114.075 599.115 103.967 589.011 103.967H586.124V163.17H584.681ZM928.205 163.17V31.7676H945.525V109.743L965.733 31.7676H988.827V164.614H970.063V72.1992L945.525 164.614L928.205 163.17ZM1004.7 163.17V31.7676H1022.02V109.743L1042.23 31.7676H1065.33V164.614H1046.56V72.1992L1022.02 164.614L1004.7 163.17ZM1056.67 0V15.8838H1013.36V0H1056.67ZM877.687 163.17H857.479V31.7676H877.687V83.751H880.573C892.12 83.751 895.007 72.1992 895.007 63.5353V31.7676H915.214V62.0913C915.214 76.5311 909.441 86.639 899.337 93.8589C910.884 101.079 915.214 111.187 915.214 125.627V166.058H895.007V122.739C895.007 114.075 890.677 103.967 880.573 103.967H877.687V163.17ZM511.069 163.17H490.861V31.7676H511.069H529.832H550.04V85.195H529.832V50.5394H511.069V144.398H529.832V109.743H550.04V163.17H529.832H511.069ZM802.631 163.17H782.424V31.7676H802.631H821.395H841.602V85.195H821.395V50.5394H802.631V144.398H821.395V109.743H841.602V163.17H821.395H802.631ZM456.22 50.5394H436.013C436.013 82.3071 436.013 112.631 436.013 145.842H454.777C456.22 112.631 456.22 82.3071 456.22 50.5394ZM436.013 163.17H415.806C415.806 118.407 415.806 75.0871 415.806 30.3237H436.013H454.777H474.984C474.984 75.0871 474.984 118.407 474.984 163.17H454.777H436.013ZM677.057 50.5394H658.293C658.293 82.3071 658.293 112.631 658.293 145.842H677.057C677.057 112.631 677.057 82.3071 677.057 50.5394ZM658.293 163.17H638.086C638.086 118.407 638.086 75.0871 638.086 30.3237H658.293H677.057H697.264C697.264 75.0871 697.264 118.407 697.264 163.17H677.057H658.293ZM731.905 50.5394V86.639C739.122 86.639 749.226 86.639 749.226 73.6432V60.6473V50.5394H731.905ZM731.905 103.967V144.398H749.226C749.226 135.734 749.226 127.071 749.226 118.407C749.226 105.411 739.122 103.967 731.905 103.967ZM769.433 54.8714V60.6473V70.7552C769.433 80.8631 765.103 89.527 757.886 93.8589C765.103 99.6349 769.433 108.299 769.433 119.851C769.433 134.29 769.433 148.73 769.433 163.17C756.443 163.17 744.896 163.17 731.905 163.17H711.698V31.7676H731.905C744.896 31.7676 756.443 31.7676 769.433 31.7676V54.8714ZM359.514 119.851C365.287 90.971 371.061 59.2033 375.391 31.7676H402.815V164.614H385.495V111.187L386.938 63.5353C384.051 79.4191 373.948 134.29 362.401 161.726H360.957H359.514C346.524 134.29 336.42 79.4191 334.976 63.5353L336.42 111.187V163.17H319.099V31.7676H346.523C346.523 60.6473 353.74 90.971 359.514 119.851Z" fill="#E51F2F"/>
<path d="M558.701 203.602V262.806C565.918 262.806 576.021 261.362 576.021 248.366V236.814V203.602H558.701ZM596.229 231.038V236.814V246.922C596.229 267.138 586.125 281.577 565.918 281.577H558.701V317.677H538.493V184.831C557.257 184.831 576.021 184.831 596.229 184.831V231.038ZM602.002 184.831H664.067V203.602H642.417V317.677H622.209V203.602H600.559V184.831H602.002ZM505.296 203.602H486.532C486.532 235.37 486.532 265.694 486.532 298.905H505.296C505.296 265.694 505.296 235.37 505.296 203.602ZM485.088 317.677H464.881C464.881 272.914 464.881 229.594 464.881 184.831H485.088H503.852H524.06C524.06 229.594 524.06 272.914 524.06 317.677H503.852H485.088ZM336.42 317.677H316.213V184.831H336.42H355.184H375.392V238.258H355.184V203.602H336.42V298.905H355.184V264.25H375.392V317.677H355.184H336.42ZM411.476 317.677H391.269V184.831H450.447V317.677H430.24V203.602H411.476V317.677Z" fill="#E51F2F"/>
<path d="M140.121 248.365C144.451 254.141 150.225 259.917 155.998 265.693C183.422 291.684 216.62 309.012 255.591 317.676V294.572C223.837 287.352 194.969 271.469 173.319 249.809C166.102 242.589 158.885 235.369 153.111 226.705L140.121 248.365Z" fill="#E51F2F"/>
<path d="M56.4048 223.817C80.9422 199.269 96.8194 167.502 96.8194 131.402V31.7671H119.913V131.402C119.913 148.73 122.8 170.39 128.574 186.273C134.347 170.39 137.234 150.174 137.234 131.402V31.7671H160.328V131.402C160.328 167.502 176.205 200.713 200.743 223.817C215.176 238.257 233.94 248.365 254.148 255.585V278.688C226.723 271.468 203.629 257.029 183.422 239.701C168.988 225.261 157.441 209.377 148.781 192.049C143.007 207.933 135.791 222.373 127.13 233.925C118.47 222.373 111.253 207.933 105.48 192.049C96.8194 210.821 85.2723 226.705 70.8386 239.701C52.0746 258.473 27.5372 271.468 0.113037 278.688V255.585C23.2071 249.809 41.971 238.257 56.4048 223.817Z" fill="#E51F2F"/>
<path d="M197.856 129.957C197.856 155.949 209.403 180.497 228.167 197.824C235.384 205.044 245.487 212.264 255.591 216.596V241.144C238.271 235.368 223.837 225.26 212.29 213.708C189.196 192.049 176.205 163.169 176.205 129.957V106.854H199.299V129.957H197.856Z" fill="#E51F2F"/>
<path d="M59.2917 106.854H82.3858V129.957C82.3858 163.169 67.952 192.049 46.3013 213.708C33.3109 225.26 18.8771 235.368 2.99997 241.144V216.596C13.1036 212.264 21.7639 205.044 30.4242 197.824C49.1881 180.497 60.7351 155.949 60.7351 129.957V106.854H59.2917Z" fill="#E51F2F"/>
<path d="M105.48 226.705C99.7063 235.369 92.4894 242.589 85.2725 249.809C62.1785 271.469 34.7543 287.352 2.99997 294.572V317.676C41.9712 310.456 75.1689 291.684 102.593 265.693C108.367 259.917 114.14 254.141 118.47 248.365L105.48 226.705Z" fill="#E51F2F"/>
</svg>

<svg width="1066" height="318" fill="none" xmlns="http://www.w3.org/2000/svg"><path d="M584.681 163.17h-20.207V31.768h20.207V83.75h2.887c11.547 0 14.433-11.552 14.433-20.216V31.768h21.651V62.09c0 14.44-5.773 24.548-15.877 31.768 11.547 7.22 15.877 15.884 15.877 30.324v40.431h-20.207v-41.875c0-8.664-4.33-18.772-14.434-18.772h-2.887v59.203h-1.443zm343.524 0V31.768h17.32v77.975l20.208-77.975h23.094v132.846h-18.764V72.199l-24.538 92.415-17.32-1.444zm76.495 0V31.768h17.32v77.975l20.21-77.975h23.1v132.846h-18.77V72.199l-24.54 92.415-17.32-1.444zM1056.67 0v15.884h-43.31V0h43.31zM877.687 163.17h-20.208V31.768h20.208V83.75h2.886c11.547 0 14.434-11.552 14.434-20.216V31.768h20.207V62.09c0 14.44-5.773 24.548-15.877 31.768 11.547 7.22 15.877 17.328 15.877 31.768v40.431h-20.207v-43.319c0-8.664-4.33-18.772-14.434-18.772h-2.886v59.203zm-366.618 0h-20.208V31.768h59.179v53.427h-20.208V50.539h-18.763v93.859h18.763v-34.655h20.208v53.427H511.069zm291.562 0h-20.207V31.768H841.602v53.427h-20.207V50.539h-18.764v93.859h18.764v-34.655h20.207v53.427H802.631zM456.22 50.54h-20.207v95.302h18.764c1.443-33.211 1.443-63.535 1.443-95.303zm-20.207 112.63h-20.207V30.324H474.984V163.17H436.013zM677.057 50.54h-18.764v95.302h18.764V50.539zm-18.764 112.63h-20.207V30.324H697.264V163.17H658.293zm73.612-112.63v36.099c7.217 0 17.321 0 17.321-12.996V50.54h-17.321zm0 53.427v40.431h17.321v-25.991c0-12.996-10.104-14.44-17.321-14.44zm37.528-49.096v15.884c0 10.108-4.33 18.772-11.547 23.104 7.217 5.776 11.547 14.44 11.547 25.992v43.319h-57.735V31.768h57.735V54.87zm-409.919 64.98c5.773-28.88 11.547-60.648 15.877-88.083h27.424v132.846h-17.32v-53.427l1.443-47.652c-2.887 15.884-12.99 70.755-24.537 98.191h-2.887c-12.99-27.436-23.094-82.307-24.538-98.19l1.444 47.651v51.983h-17.321V31.768h27.424c0 28.88 7.217 59.203 12.991 88.083zM558.701 203.602v59.204c7.217 0 17.32-1.444 17.32-14.44v-44.764h-17.32zm37.528 27.436v15.884c0 20.216-10.104 34.655-30.311 34.655h-7.217v36.1h-20.208V184.831h57.736v46.207zm5.773-46.207h62.065v18.771h-21.65v114.075h-20.208V203.602h-21.65v-18.771h1.443zm-96.706 18.771h-18.764v95.303h18.764v-95.303zm-20.208 114.075h-20.207V184.831h59.179v132.846H485.088zm-148.668 0h-20.207V184.831h59.179v53.427h-20.208v-34.656H336.42v95.303h18.764V264.25h20.208v53.427H336.42zm75.056 0h-20.207V184.831h59.178v132.846H430.24V203.602h-18.764v114.075zM140.121 248.365c4.33 5.776 10.104 11.552 15.877 17.328 27.424 25.991 60.622 43.319 99.593 51.983v-23.104c-31.754-7.22-60.622-23.103-82.272-44.763-7.217-7.22-14.434-14.44-20.208-23.104l-12.99 21.66z" fill="#E51F2F"/><path d="M56.405 223.817c24.537-24.548 40.414-56.315 40.414-92.415V31.767h23.094v99.635c0 17.328 2.887 38.988 8.661 54.871 5.773-15.883 8.66-36.099 8.66-54.871V31.767h23.094v99.635c0 36.1 15.877 69.311 40.415 92.415 14.433 14.44 33.197 24.548 53.405 31.768v23.103c-27.425-7.22-50.519-21.659-70.726-38.987-14.434-14.44-25.981-30.324-34.641-47.652-5.774 15.884-12.99 30.324-21.651 41.876-8.66-11.552-15.877-25.992-21.65-41.876-8.66 18.772-20.208 34.656-34.641 47.652-18.764 18.772-43.302 31.767-70.726 38.987v-23.103c23.094-5.776 41.858-17.328 56.292-31.768z" fill="#E51F2F"/><path d="M197.856 129.957c0 25.992 11.547 50.54 30.311 67.867 7.217 7.22 17.32 14.44 27.424 18.772v24.548c-17.32-5.776-31.754-15.884-43.301-27.436-23.094-21.659-36.085-50.539-36.085-83.751v-23.103h23.094v23.103h-1.443zM59.292 106.854h23.094v23.103c0 33.212-14.434 62.092-36.085 83.751C33.311 225.26 18.877 235.368 3 241.144v-24.548c10.104-4.332 18.764-11.552 27.424-18.772 18.764-17.327 30.311-41.875 30.311-67.867v-23.103h-1.443zM105.48 226.705c-5.774 8.664-12.99 15.884-20.208 23.104C62.178 271.469 34.754 287.352 3 294.572v23.104c38.971-7.22 72.169-25.992 99.593-51.983 5.774-5.776 11.547-11.552 15.877-17.328l-12.99-21.66z" fill="#E51F2F"/></svg>
